svg/文化体育-1.svg

<svg width="36" height="36" viewBox="0 0 36 36" fill="none" xmlns="http://www.w3.org/2000/svg"><rect x="-75" y="-9.5" width="186" height="87" rx="11.5" stroke="#FF8D28"/><g opacity="0.8"><path d="M0 12C0 5.37258 5.37258 0 12 0H24C30.6274 0 36 5.37258 36 12V24C36 30.6274 30.6274 36 24 36H12C5.37258 36 0 30.6274 0 24V12Z" fill="#34CC81"/><path d="M20.5769 28.7176C22.4924 28.9633 24.4128 29.1739 26.3232 29.4597C27.8526 29.6853 29.3518 30.0664 30.7608 30.7132C31.3876 31.004 31.9993 31.3701 32.5258 31.8164C33.3381 32.5033 33.3131 33.3357 32.5459 34.0778C31.8088 34.7998 30.8711 35.1759 29.9234 35.5169C28.1384 36.1637 26.2731 36.5047 24.3978 36.7453C21.0081 37.1766 17.6035 37.2518 14.1938 37.0061C11.446 36.8055 8.72327 36.4395 6.10083 35.5319C5.18824 35.216 4.30072 34.8449 3.57365 34.1931C2.65605 33.3758 2.61092 32.4582 3.58869 31.7261C4.34584 31.1645 5.22334 30.7132 6.11085 30.3823C8.40236 29.5299 10.8142 29.1839 13.2411 28.9783C14.3442 28.883 15.4524 28.8529 16.5555 28.7727C16.8413 28.7527 17.0018 28.8529 17.1672 29.0786C17.8141 29.946 18.5161 30.7784 19.5039 31.2698C19.89 31.4654 20.3563 31.5757 20.7875 31.5857C21.5146 31.6007 21.8756 30.999 21.5898 30.3171C21.4745 30.0413 21.2889 29.7856 21.1134 29.5399C20.943 29.3042 20.7424 29.0936 20.5518 28.873C20.5619 28.8229 20.5719 28.7727 20.5769 28.7176Z" fill="#006121"/><path d="M25.8614 27.4038C24.8436 27.0679 23.7705 26.8472 22.8228 26.3759C21.4188 25.6789 20.1051 24.8065 18.7563 24.0092C18.4203 23.8086 18.0994 23.573 17.7384 23.4275C17.2119 23.2169 16.8057 23.5128 16.9361 24.0543C17.0865 24.6811 17.2871 25.343 17.6481 25.8594C18.6259 27.2484 19.709 28.5671 20.7469 29.9109C20.8171 30.0012 20.9475 30.0814 20.9625 30.1767C20.9976 30.3923 21.0528 30.6581 20.9575 30.8235C20.8823 30.9539 20.5815 31.0341 20.406 30.999C20.1653 30.9489 19.9196 30.8085 19.719 30.6531C17.262 28.7276 15.4118 26.2957 13.8724 23.6081C11.3603 19.2206 9.77579 14.4922 8.73282 9.5682C8.69271 9.38268 8.64758 9.19715 8.63254 9.01162C8.60245 8.60547 8.86821 8.27955 9.25932 8.2645C9.66046 8.24946 9.78581 8.52524 9.86604 8.87123C10.1168 9.89914 10.2973 10.9571 10.6783 11.9399C11.4255 13.8654 12.9197 14.8181 14.9856 14.8181C16.9461 14.8231 18.8766 14.5574 20.787 14.1512C22.0607 13.8754 23.3192 13.5044 24.5878 13.1885C24.8335 13.1283 25.1143 13.1032 25.36 13.1484C25.5104 13.1785 25.711 13.3439 25.7511 13.4893C25.7862 13.6247 25.6859 13.8955 25.5656 13.9607C25.0642 14.2415 24.5427 14.5072 24.0012 14.7128C23.2691 14.9936 22.4919 15.1591 21.7698 15.4649C20.8372 15.8611 19.9045 16.2772 19.0421 16.7987C17.7284 17.596 17.3874 18.9147 18.0342 20.3187C18.4454 21.2213 19.1273 21.8982 19.9146 22.4598C21.9554 23.9139 24.0814 25.2327 26.3779 26.2506C26.5634 26.3308 26.774 26.5765 26.7991 26.767C26.8342 27.0578 26.5835 27.2133 26.2826 27.2434C26.1523 27.2534 26.0269 27.2835 25.8965 27.3035C25.8865 27.3386 25.8715 27.3687 25.8614 27.4038Z" fill="#006121"/><path d="M17.7487 10.2953C17.7437 11.5789 16.9113 12.7071 15.9135 12.8776C15.2315 12.9929 14.68 12.7573 14.2588 12.2308C13.3111 11.0424 13.968 8.84114 15.407 8.35977C16.5052 7.99373 17.5782 8.74085 17.7336 9.97937C17.7437 10.1097 17.7437 10.2401 17.7487 10.2953Z" fill="#006121"/></g><defs><clipPath id="clip0_1970_14250"></clipPath></defs></svg>

<svg fill="none" viewBox="0 0 36 36"><rect width="186" height="87" x="-75" y="-9.5" stroke="#FF8D28" rx="11.5"/><g opacity=".8"><path fill="#34CC81" d="M0 12C0 5.373 5.373 0 12 0h12c6.627 0 12 5.373 12 12v12c0 6.627-5.373 12-12 12H12C5.373 36 0 30.627 0 24z"/><path fill="#006121" d="M20.577 28.718c1.915.245 3.836.456 5.746.742 1.53.225 3.029.606 4.438 1.253a7.8 7.8 0 0 1 1.765 1.103c.812.687.787 1.52.02 2.262-.737.722-1.675 1.098-2.623 1.439-1.785.647-3.65.988-5.525 1.228-3.39.432-6.794.507-10.204.261-2.748-.2-5.47-.566-8.093-1.474-.913-.316-1.8-.687-2.527-1.339-.918-.817-.963-1.735.015-2.467a10.3 10.3 0 0 1 2.522-1.344c2.291-.852 4.703-1.198 7.13-1.404 1.103-.095 2.211-.125 3.314-.205.286-.02.447.08.612.306.647.867 1.35 1.7 2.337 2.19.386.196.852.307 1.284.317.727.015 1.088-.587.802-1.269-.116-.276-.301-.531-.477-.777-.17-.236-.37-.446-.561-.667q.016-.074.025-.155"/><path fill="#006121" d="M25.861 27.404c-1.017-.336-2.09-.557-3.038-1.028-1.404-.697-2.718-1.57-4.067-2.367-.336-.2-.657-.436-1.018-.582-.526-.21-.932.086-.802.627.15.627.351 1.289.712 1.805.978 1.39 2.061 2.708 3.099 4.052.07.09.2.17.215.266.036.215.09.481-.005.646-.075.13-.376.211-.551.176-.24-.05-.486-.19-.687-.346-2.457-1.925-4.307-4.357-5.847-7.045-2.512-4.387-4.096-9.116-5.14-14.04-.04-.185-.084-.37-.1-.556-.03-.407.236-.732.627-.748.401-.015.527.261.607.607.25 1.028.431 2.086.812 3.069.747 1.925 2.242 2.878 4.308 2.878 1.96.005 3.89-.26 5.801-.667 1.274-.276 2.532-.647 3.8-.963.247-.06.527-.085.773-.04.15.03.351.196.391.341.035.136-.065.406-.185.472a12 12 0 0 1-1.565.752c-.732.28-1.51.446-2.231.752-.933.396-1.866.812-2.728 1.334-1.314.797-1.655 2.116-1.008 3.52.411.902 1.093 1.58 1.88 2.14 2.041 1.455 4.167 2.774 6.464 3.792.185.08.396.325.421.516.035.29-.215.446-.516.476-.13.01-.256.04-.387.06-.01.036-.024.066-.035.1"/><path fill="#006121" d="M17.749 10.295c-.005 1.284-.838 2.412-1.835 2.583-.682.115-1.234-.12-1.655-.647-.948-1.189-.291-3.39 1.148-3.871 1.098-.366 2.171.38 2.327 1.62.01.13.01.26.015.315"/></g></svg>
